svg/u1f937_1f3fc_200d_2640.svg

<svg viewBox="0 0 128 128" xmlns="http://www.w3.org/2000/svg">
  <g id="hairGroup_1_">
    <path id="hair_10_" d="M53.42,4.88c-37.22,6.89-30.56,41.25-30.46,41.8c4.12,22.29,11.65,53.47,22.87,64.21 c4.44,4.26,11.33,3.26,11.33,3.26l15.4-2.87l15.41-2.83c0,0,6.79-1.54,9.42-7.1c6.63-14.04,2.51-45.85-1.62-68.14 C95.68,32.66,90.65-2.01,53.42,4.88z" fill="#AB872F"/>
    <radialGradient id="hairHighlights_2_" cx="65.0712" cy="101.9394" gradientTransform="matrix(0.9833 -0.1819 -0.2165 -1.1703 20.3229 186.5522)" gradientUnits="userSpaceOnUse" r="43.8769">
      <stop offset="0.7936" stop-color="#BFA055" stop-opacity="0"/>
      <stop offset="1" stop-color="#BFA055"/>
    </radialGradient>
    <path id="hairHighlights_1_" d="M53.42,4.88c-37.22,6.89-30.56,41.25-30.46,41.8 c4.12,22.29,11.65,53.47,22.87,64.21c4.44,4.26,11.33,3.26,11.33,3.26l15.4-2.87l15.41-2.83c0,0,6.79-1.54,9.42-7.1 c6.63-14.04,2.51-45.85-1.62-68.14C95.68,32.66,90.65-2.01,53.42,4.88z" fill="url(#hairHighlights_2_)"/>
  </g>
  <linearGradient id="hand_2_" gradientTransform="matrix(1 0 0 -1 0 128)" gradientUnits="userSpaceOnUse" x1="16.3982" x2="16.3982" y1="59.3723" y2="82.2598">
    <stop offset="0.5" stop-color="#E0BB95"/>
    <stop offset="1" stop-color="#CCA47A"/>
  </linearGradient>
  <path id="hand_1_" d="M26.28,62.35c-2.18-1.62-4.22-3.51-6.08-5.66c-0.95-1.05-2.83-2.78-4.69-2.62 c-0.38,0.03-0.87,0.16-1.34,0.51c-1.27-1.64-4.2-6.04-5.66-9.92c-0.59-1.23-1.62-1.43-2.33-1.23C4.92,43.8,4.11,45.4,4.3,47.17 c0.62,5.9,5.24,13.09,6.97,14.78l-0.03,0.02c3.4,4.14,3.72,10.18,3.72,10.24c0.02,0.47,0.37,0.86,0.83,0.94l9.51,1.59 c0.06,0.01,0.11,0.01,0.17,0.01c0.42,0,0.81-0.27,0.94-0.68c0.63-1.85,2.09-6.25,2.11-7.25C28.58,63.9,26.73,62.62,26.28,62.35z" fill="url(#hand_2_)"/>
  <linearGradient id="hand_3_" gradientTransform="matrix(1 0 0 -1 0 128)" gradientUnits="userSpaceOnUse" x1="111.8223" x2="111.8223" y1="59.3723" y2="82.2598">
    <stop offset="0.5" stop-color="#E0BB95"/>
    <stop offset="1" stop-color="#CCA47A"/>
  </linearGradient>
  <path id="hand" d="M122.08,43.45c-0.71-0.22-1.77-0.02-2.41,1.31c-1.43,3.8-4.36,8.19-5.63,9.83 c-0.47-0.35-0.96-0.47-1.34-0.51c-1.86-0.16-3.74,1.57-4.7,2.63c-1.85,2.13-3.89,4.03-6.07,5.64c-0.45,0.27-2.3,1.54-2.24,4.48 c0.02,1,1.48,5.41,2.11,7.25c0.14,0.41,0.52,0.68,0.94,0.68c0.06,0,0.11,0,0.17-0.01l9.51-1.59c0.51-0.08,0.87-0.54,0.83-1.06 c0-0.05-0.34-5.39,3.71-10.11l-0.03-0.02c1.73-1.68,6.2-9.03,6.98-14.77C124.15,45.45,123.36,43.83,122.08,43.45z" fill="url(#hand_3_)"/>
  <g id="shirt">
    <linearGradient id="SVGID_1_" gradientTransform="matrix(1 0 0 -1 0 128)" gradientUnits="userSpaceOnUse" x1="64.0675" x2="64.0675" y1="45.9769" y2="0.9071">
      <stop offset="0" stop-color="#651FFF"/>
      <stop offset="0.7047" stop-color="#5914F2"/>
      <stop offset="1" stop-color="#530EEB"/>
    </linearGradient>
    <path d="M115.64,70.51c-0.02-0.8-0.65-1.45-1.45-1.51l-12.81-0.75c-0.04,0-0.07,0-0.11,0 c-0.78,0-1.45,0.59-1.54,1.38L97.05,88.6c-4.18-3.58-9.95-6.21-17.88-6.21c-2.61,0-27.58-0.12-30.2-0.12 c-7.93,0-13.7,2.63-17.88,6.21l-2.67-18.97c-0.09-0.79-0.76-1.38-1.55-1.38c-0.04,0-0.07,0-0.11,0l-12.81,0.75 c-0.8,0.06-1.42,0.71-1.45,1.51l-0.11,40.54c-0.14,7.11,5.58,12.94,12.69,12.94c4.92,0,8.86-3.69,9.46-8.31l0.03,0.02l0,8.41h1.5 h1.5h52.98h1.5h1.5l0-8.29l0.04-0.02c0.6,4.62,4.54,8.31,9.46,8.31c7.11,0,12.83-5.84,12.69-12.94L115.64,70.51z" fill="url(#SVGID_1_)"/>
    <path d="M99.03,123.12c-0.59-0.26-1.14-0.58-1.65-0.97c-0.71-0.53-1.35-1.16-1.89-1.86 c-1.02-1.31-1.69-2.89-1.91-4.59l-0.02,0.01l-0.38-10.68C93.18,105.03,93.81,114.18,99.03,123.12z" fill="#4A00ED"/>
    <path d="M34.9,105.03l-0.38,10.59v0.01c-0.43,3.23-2.5,6-5.39,7.36C34.27,114.09,34.9,105.03,34.9,105.03z" fill="#4A00ED"/>
  </g>
  <g id="neck">
    <path d="M54.92,78.33v9.98c0,4.51,3.62,8.17,9.08,8.17s9.08-3.66,9.08-8.17v-9.98L54.92,78.33z" fill="#C48E6A"/>
  </g>
  <path id="head" d="M55.53,15.03L55.53,15.03L55.53,15.03c-15.76,2.74-28.32,17-23.99,41.86 c3.48,19.96,17.89,29.62,29.32,31.55c2.72,0.46,5.28,0.49,7.47,0.11c2.18-0.38,4.56-1.26,6.96-2.6 c10.11-5.67,20.45-19.64,16.97-39.63C87.93,21.46,71.29,12.29,55.53,15.03z" fill="#E0BB95"/>
  <path id="mouth" d="M71.05,75.72c0.22,2.78-2.21,3.55-5.27,3.79c-3.06,0.24-5.58-0.21-5.8-2.92 c-0.22-2.86,2.12-4.82,5.17-5.06C68.21,71.29,70.82,72.81,71.05,75.72z" fill="#6D4C41"/>
  <path id="nose" d="M67.1,62.41c-0.1-0.03-0.2-0.04-0.3-0.04l-6.44,0.78c-0.1,0.02-0.19,0.06-0.28,0.11 c-0.56,0.31-0.8,0.95-0.45,1.56c0.35,0.61,1.85,2.26,4.44,1.95c2.58-0.31,3.64-2.28,3.84-2.95C68.1,63.14,67.71,62.58,67.1,62.41z" fill="#C48E6A"/>
  <g id="eyes">
    <ellipse cx="47.55" cy="56.45" fill="#5D4037" rx="4.49" ry="4.65" transform="matrix(0.9929 -0.1193 0.1193 0.9929 -6.3943 6.075)"/>
    <ellipse cx="77.32" cy="52.87" fill="#5D4037" rx="4.49" ry="4.65" transform="matrix(0.9929 -0.1193 0.1193 0.9929 -5.7549 9.6015)"/>
  </g>
  <g id="eyebrows">
    <path d="M53.17,47.35c-0.98-1.02-3.15-2.42-6.96-1.97c-3.81,0.46-5.58,2.33-6.3,3.56 c-0.32,0.54-0.15,1.1,0.15,1.42c0.28,0.29,1.03,0.51,1.78,0.15s2.2-1.34,4.78-1.67c2.58-0.29,4.22,0.32,5.03,0.49 c0.82,0.17,1.5-0.21,1.7-0.56C53.58,48.39,53.61,47.8,53.17,47.35z" fill="#AB872F"/>
    <path d="M82.95,43.77c-0.98-1.02-3.15-2.42-6.96-1.97c-3.81,0.46-5.58,2.33-6.29,3.56 c-0.32,0.54-0.15,1.1,0.15,1.42c0.28,0.29,1.03,0.51,1.79,0.15c0.76-0.36,2.2-1.34,4.78-1.67c2.58-0.29,4.22,0.32,5.03,0.49 c0.82,0.17,1.5-0.21,1.7-0.56C83.36,44.81,83.38,44.22,82.95,43.77z" fill="#AB872F"/>
  </g>
  <g id="hairGroup">
    <path id="hair_5_" d="M53.42,4.88c-37.22,6.89-30.56,41.25-30.46,41.8c1.3,7.04,2.95,14.97,4.94,22.86 L34,68.4c-0.54-2.64-1.72-19.37,3.58-21.63c19.45-8.32,28.94-21.21,28.94-21.21c4.19,5.97,14.71,10.6,18.51,12.4 c3.12,1.48,7.16,16.09,7.75,19.58l6.54-1.21c0-0.05,0-0.1,0-0.15c-0.96-8.03-2.26-15.97-3.55-22.97 C95.68,32.66,90.65-2.01,53.42,4.88z" fill="#AB872F"/>
    <radialGradient id="hairHighlights_3_" cx="65.3783" cy="98.2243" gradientTransform="matrix(0.9833 -0.1819 -0.2208 -1.1932 20.6185 188.1062)" gradientUnits="userSpaceOnUse" r="45.9601">
      <stop offset="0.7945" stop-color="#BFA055" stop-opacity="0"/>
      <stop offset="1" stop-color="#BFA055"/>
    </radialGradient>
    <path id="hairHighlights" d="M53.42,4.88c-37.22,6.89-30.56,41.25-30.46,41.8 c1.3,7.04,2.95,14.97,4.94,22.86L34,68.4c-0.54-2.64-1.72-19.37,3.58-21.63c19.45-8.32,28.94-21.21,28.94-21.21 c4.19,5.97,14.71,10.6,18.51,12.4c3.12,1.48,7.16,16.09,7.75,19.58l6.54-1.21c0-0.05,0-0.1,0-0.15 c-0.96-8.03-2.26-15.97-3.55-22.97C95.68,32.66,90.65-2.01,53.42,4.88z" fill="url(#hairHighlights_3_)"/>
  </g>
</svg>

<svg viewBox="0 0 128 128" xmlns="http://www.w3.org/2000/svg">
  <defs>
    <linearGradient id="hand_2_" gradientTransform="matrix(1 0 0 -1 0 0)" gradientUnits="userSpaceOnUse" x1="16.3982" x2="16.3982" y1="-68.6277" y2="-45.7402">
      <stop offset="0.5" stop-color="#E0BB95"/>
      <stop offset="1" stop-color="#CCA47A"/>
    </linearGradient>
    <linearGradient id="hand_3_" gradientTransform="matrix(1 0 0 -1 0 0)" gradientUnits="userSpaceOnUse" x1="111.8223" x2="111.8223" y1="-68.6277" y2="-45.7402">
      <stop offset="0.5" stop-color="#E0BB95"/>
      <stop offset="1" stop-color="#CCA47A"/>
    </linearGradient>
    <linearGradient id="SVGID_1_" gradientTransform="matrix(1 0 0 -1 0 0)" gradientUnits="userSpaceOnUse" x1="64.0675" x2="64.0675" y1="-82.0231" y2="-127.0929">
      <stop offset="0" stop-color="#651FFF"/>
      <stop offset="0.7047" stop-color="#5914F2"/>
      <stop offset="1" stop-color="#530EEB"/>
    </linearGradient>
    <radialGradient id="hairHighlights_2_" cx="51.119313" cy="-55.297507" gradientTransform="matrix(0.9833 -0.1819 -0.2165 -1.1703 0 0)" gradientUnits="userSpaceOnUse" r="43.8769">
      <stop offset="0.7936" stop-color="#BFA055" stop-opacity="0"/>
      <stop offset="1" stop-color="#BFA055"/>
    </radialGradient>
    <radialGradient id="hairHighlights_3_" cx="51.424668" cy="-57.297016" gradientTransform="matrix(0.9833 -0.1819 -0.2208 -1.1932 0 0)" gradientUnits="userSpaceOnUse" r="45.9601">
      <stop offset="0.7945" stop-color="#BFA055" stop-opacity="0"/>
      <stop offset="1" stop-color="#BFA055"/>
    </radialGradient>
  </defs>
  <path id="hair_10_" d="M53.42,4.88 C16.2,11.77 22.86,46.13 22.96,46.68 C27.08,68.97 34.61,100.15 45.83,110.89 C50.27,115.15 57.16,114.15 57.16,114.15 L72.56,111.28 L87.97,108.45 C87.97,108.45 94.76,106.91 97.39,101.35 C104.02,87.31 99.9,55.5 95.77,33.21 C95.68,32.66 90.65,-2.01 53.42,4.88 Z" fill="#AB872F"/>
  <path id="hairHighlights_1_" d="M53.42,4.88 C16.2,11.77 22.86,46.13 22.96,46.68 C27.08,68.97 34.61,100.15 45.83,110.89 C50.27,115.15 57.16,114.15 57.16,114.15 L72.56,111.28 L87.97,108.45 C87.97,108.45 94.76,106.91 97.39,101.35 C104.02,87.31 99.9,55.5 95.77,33.21 C95.68,32.66 90.65,-2.01 53.42,4.88 Z" fill="url(#hairHighlights_2_)"/>
  <path id="hand_1_" d="M26.28,62.35 C24.1,60.73 22.06,58.84 20.2,56.69 C19.25,55.64 17.37,53.91 15.51,54.07 C15.13,54.1 14.64,54.23 14.17,54.58 C12.9,52.94 9.97,48.54 8.51,44.66 C7.92,43.43 6.89,43.23 6.18,43.43 C4.92,43.8 4.11,45.4 4.3,47.17 C4.92,53.07 9.54,60.26 11.27,61.95 L11.24,61.97 C14.64,66.11 14.96,72.15 14.96,72.21 C14.98,72.68 15.33,73.07 15.79,73.15 L25.3,74.74 C25.36,74.75 25.41,74.75 25.47,74.75 C25.89,74.75 26.28,74.48 26.41,74.07 C27.04,72.22 28.5,67.82 28.52,66.82 C28.58,63.9 26.73,62.62 26.28,62.35 Z" fill="url(#hand_2_)"/>
  <path id="hand" d="M122.08,43.45 C121.37,43.23 120.31,43.43 119.67,44.76 C118.24,48.56 115.31,52.95 114.04,54.59 C113.57,54.24 113.08,54.12 112.7,54.08 C110.84,53.92 108.96,55.65 108,56.71 C106.15,58.84 104.11,60.74 101.93,62.35 C101.48,62.62 99.63,63.89 99.69,66.83 C99.71,67.83 101.17,72.24 101.8,74.08 C101.94,74.49 102.32,74.76 102.74,74.76 C102.8,74.76 102.85,74.76 102.91,74.75 L112.42,73.16 C112.93,73.08 113.29,72.62 113.25,72.1 C113.25,72.05 112.91,66.71 116.96,61.99 L116.93,61.97 C118.66,60.29 123.13,52.94 123.91,47.2 C124.15,45.45 123.36,43.83 122.08,43.45 Z" fill="url(#hand_3_)"/>
  <path d="M115.64,70.51 C115.62,69.71 114.99,69.06 114.19,69 L101.38,68.25 C101.34,68.25 101.31,68.25 101.27,68.25 C100.49,68.25 99.82,68.84 99.73,69.63 L97.05,88.6 C92.87,85.02 87.1,82.39 79.17,82.39 C76.56,82.39 51.59,82.27 48.97,82.27 C41.04,82.27 35.27,84.9 31.09,88.48 L28.42,69.51 C28.33,68.72 27.66,68.13 26.87,68.13 C26.83,68.13 26.8,68.13 26.76,68.13 L13.95,68.88 C13.15,68.94 12.53,69.59 12.5,70.39 L12.39,110.93 C12.25,118.04 17.97,123.87 25.08,123.87 C30,123.87 33.94,120.18 34.54,115.56 L34.57,115.58 L34.57,123.99 L36.07,123.99 L37.57,123.99 L90.55,123.99 L92.05,123.99 L93.55,123.99 L93.55,115.7 L93.59,115.68 C94.19,120.3 98.13,123.99 103.05,123.99 C110.16,123.99 115.88,118.15 115.74,111.05 L115.64,70.51 Z" fill="url(#SVGID_1_)"/>
  <path d="M99.03,123.12 C98.44,122.86 97.89,122.54 97.38,122.15 C96.67,121.62 96.03,120.99 95.49,120.29 C94.47,118.98 93.8,117.4 93.58,115.7 L93.56,115.71 L93.18,105.03 C93.18,105.03 93.81,114.18 99.03,123.12 Z" fill="#4A00ED"/>
  <path d="M34.9,105.03 L34.52,115.62 L34.52,115.63 C34.09,118.86 32.02,121.63 29.13,122.99 C34.27,114.09 34.9,105.03 34.9,105.03 Z" fill="#4A00ED"/>
  <path d="M54.92,78.33 L54.92,88.31 C54.92,92.82 58.54,96.48 64,96.48 C69.46,96.48 73.08,92.82 73.08,88.31 L73.08,78.33 L54.92,78.33 Z" fill="#C48E6A"/>
  <path id="head" d="M55.53,15.03 L55.53,15.03 L55.53,15.03 C39.77,17.77 27.21,32.03 31.54,56.89 C35.02,76.85 49.43,86.51 60.86,88.44 C63.58,88.9 66.14,88.93 68.33,88.55 C70.51,88.17 72.89,87.29 75.29,85.95 C85.4,80.28 95.74,66.31 92.26,46.32 C87.93,21.46 71.29,12.29 55.53,15.03 Z" fill="#E0BB95"/>
  <path id="mouth" d="M71.05,75.72 C71.27,78.5 68.84,79.27 65.78,79.51 C62.72,79.75 60.2,79.3 59.98,76.59 C59.76,73.73 62.1,71.77 65.15,71.53 C68.21,71.29 70.82,72.81 71.05,75.72 Z" fill="#6D4C41"/>
  <path id="nose" d="M67.1,62.41 C67,62.38 66.9,62.37 66.8,62.37 L60.36,63.15 C60.26,63.17 60.17,63.21 60.08,63.26 C59.52,63.57 59.28,64.21 59.63,64.82 C59.98,65.43 61.48,67.08 64.07,66.77 C66.65,66.46 67.71,64.49 67.91,63.82 C68.1,63.14 67.71,62.58 67.1,62.41 Z" fill="#C48E6A"/>
  <path d="M52.011,55.916 C52.317,58.466 50.569,60.773 48.107,61.068 C45.645,61.364 43.401,59.537 43.094,56.987 C42.788,54.437 44.536,52.13 46.998,51.835 C49.46,51.539 51.704,53.366 52.011,55.916 Z" fill="#5D4037"/>
  <path d="M81.782,52.336 C82.088,54.886 80.34,57.193 77.878,57.489 C75.416,57.785 73.172,55.957 72.865,53.408 C72.559,50.858 74.307,48.551 76.769,48.255 C79.231,47.959 81.475,49.786 81.782,52.336 Z" fill="#5D4037"/>
  <path d="M53.17,47.35 C52.19,46.33 50.02,44.93 46.21,45.38 C42.4,45.84 40.63,47.71 39.91,48.94 C39.59,49.48 39.76,50.04 40.06,50.36 C40.34,50.65 41.09,50.87 41.84,50.51 C42.59,50.15 44.04,49.17 46.62,48.84 C49.2,48.55 50.84,49.16 51.65,49.33 C52.47,49.5 53.15,49.12 53.35,48.77 C53.58,48.39 53.61,47.8 53.17,47.35 Z" fill="#AB872F"/>
  <path d="M82.95,43.77 C81.97,42.75 79.8,41.35 75.99,41.8 C72.18,42.26 70.41,44.13 69.7,45.36 C69.38,45.9 69.55,46.46 69.85,46.78 C70.13,47.07 70.88,47.29 71.64,46.93 C72.4,46.57 73.84,45.59 76.42,45.26 C79,44.97 80.64,45.58 81.45,45.75 C82.27,45.92 82.95,45.54 83.15,45.19 C83.36,44.81 83.38,44.22 82.95,43.77 Z" fill="#AB872F"/>
  <path id="hair_5_" d="M53.42,4.88 C16.2,11.77 22.86,46.13 22.96,46.68 C24.26,53.72 25.91,61.65 27.9,69.54 L34,68.4 C33.46,65.76 32.28,49.03 37.58,46.77 C57.03,38.45 66.52,25.56 66.52,25.56 C70.71,31.53 81.23,36.16 85.03,37.96 C88.15,39.44 92.19,54.05 92.78,57.54 L99.32,56.33 C99.32,56.28 99.32,56.23 99.32,56.18 C98.36,48.15 97.06,40.21 95.77,33.21 C95.68,32.66 90.65,-2.01 53.42,4.88 Z" fill="#AB872F"/>
  <path id="hairHighlights" d="M53.42,4.88 C16.2,11.77 22.86,46.13 22.96,46.68 C24.26,53.72 25.91,61.65 27.9,69.54 L34,68.4 C33.46,65.76 32.28,49.03 37.58,46.77 C57.03,38.45 66.52,25.56 66.52,25.56 C70.71,31.53 81.23,36.16 85.03,37.96 C88.15,39.44 92.19,54.05 92.78,57.54 L99.32,56.33 C99.32,56.28 99.32,56.23 99.32,56.18 C98.36,48.15 97.06,40.21 95.77,33.21 C95.68,32.66 90.65,-2.01 53.42,4.88 Z" fill="url(#hairHighlights_3_)"/>
</svg>
